icons/solid/exclamation.svg

<svg width="24" height="24" viewBox="0 0 24 24" fill="none" xmlns="http://www.w3.org/2000/svg">
<path fill-rule="evenodd" clip-rule="evenodd" d="M9.37753 4.6613C10.5205 2.60387 13.4795 2.60387 14.6225 4.6613L21.2234 16.543C22.3343 18.5426 20.8884 21 18.601 21H5.39903C3.11157 21 1.66567 18.5426 2.77656 16.543L9.37753 4.6613ZM12 8C12.5523 8 13 8.44772 13 9V13C13 13.5523 12.5523 14 12 14C11.4477 14 11 13.5523 11 13V9C11 8.44772 11.4477 8 12 8ZM13 17C13 17.5523 12.5523 18 12 18C11.4477 18 11 17.5523 11 17C11 16.4477 11.4477 16 12 16C12.5523 16 13 16.4477 13 17Z" fill="currentColor"/>
</svg>

<svg width="24" height="24" fill="none" xmlns="http://www.w3.org/2000/svg"><path fill-rule="evenodd" clip-rule="evenodd" d="M9.378 4.661c1.143-2.057 4.101-2.057 5.245 0l6.6 11.882c1.111 2-.335 4.457-2.622 4.457H5.399c-2.287 0-3.733-2.457-2.622-4.457l6.6-11.882zM12 8a1 1 0 011 1v4a1 1 0 11-2 0V9a1 1 0 011-1zm1 9a1 1 0 11-2 0 1 1 0 012 0z" fill="currentColor"/></svg>
